src/components/00-materials/images-raw/Chat (Woman).svg

<svg width="96" height="96" viewBox="0 0 96 96" fill="none" xmlns="http://www.w3.org/2000/svg">
<path d="M42 43C47 43 49 41 49 38" stroke="#00008F" stroke-width="2" stroke-linecap="round" stroke-linejoin="round"/>
<path d="M40 41H38C36.8954 41 36 41.8954 36 43C36 44.1046 36.8954 45 38 45H40C41.1046 45 42 44.1046 42 43C42 41.8954 41.1046 41 40 41Z" stroke="#00008F" stroke-width="2" stroke-linecap="round" stroke-linejoin="round"/>
<path d="M70 53C71.1046 53 72 52.1046 72 51C72 49.8954 71.1046 49 70 49C68.8954 49 68 49.8954 68 51C68 52.1046 68.8954 53 70 53Z" stroke="#00008F" stroke-width="2" stroke-linecap="round" stroke-linejoin="round"/>
<path d="M62 53C63.1046 53 64 52.1046 64 51C64 49.8954 63.1046 49 62 49C60.8954 49 60 49.8954 60 51C60 52.1046 60.8954 53 62 53Z" stroke="#00008F" stroke-width="2" stroke-linecap="round" stroke-linejoin="round"/>
<path d="M78 53C79.1046 53 80 52.1046 80 51C80 49.8954 79.1046 49 78 49C76.8954 49 76 49.8954 76 51C76 52.1046 76.8954 53 78 53Z" stroke="#00008F" stroke-width="2" stroke-linecap="round" stroke-linejoin="round"/>
<path d="M54 73.0001V78.3201M70 35.0001C67.2055 34.9928 64.4578 35.7177 62.0305 37.1024C59.6031 38.4872 57.5808 40.4835 56.1648 42.8927C54.7488 45.302 53.9885 48.04 53.9596 50.8344C53.9307 53.6288 54.6342 56.382 56 58.8201L54 67.0001L62.18 65.0001C64.3139 66.1807 66.6895 66.8578 69.1251 66.9798C71.5608 67.1019 73.9922 66.6655 76.2334 65.704C78.4746 64.7426 80.4664 63.2816 82.0565 61.4326C83.6467 59.5836 84.7932 57.3956 85.4083 55.0357C86.0234 52.6758 86.091 50.2065 85.6058 47.8166C85.1206 45.4266 84.0955 43.1792 82.6088 41.246C81.1221 39.3128 79.2132 37.7451 77.0279 36.6626C74.8426 35.58 72.4387 35.0114 70 35.0001V35.0001ZM32 49.0001V54.0001V49.0001ZM45 49.0001V54.0001V49.0001ZM23 73.0001V78.3201V73.0001Z" stroke="#00008F" stroke-width="2" stroke-linecap="round" stroke-linejoin="round"/>
<path d="M32 54L23.1 55.53C16.72 56.46 12 61.62 12 67.69V73.17C12.0204 74.0862 12.3637 74.9658 12.9692 75.6537C13.5748 76.3416 14.4038 76.7936 15.31 76.93L26.17 78.93C34.3243 80.4 42.6757 80.4 50.83 78.93L61.69 76.93C62.5962 76.7936 63.4252 76.3416 64.0308 75.6537C64.6363 74.9658 64.9796 74.0862 65 73.17V66.17M45 54L53.9 55.53L54.75 55.83L45 54Z" stroke="#00008F" stroke-width="2" stroke-linecap="round" stroke-linejoin="round"/>
<path d="M28.46 54.61L36.14 64.7C36.4036 65.0984 36.7615 65.4256 37.1819 65.6524C37.6023 65.8792 38.0723 65.9986 38.55 66C39.0001 65.9992 39.4438 65.8941 39.8464 65.6928C40.249 65.4915 40.5993 65.1996 40.87 64.84L48.5 54.6M43.27 29H34.68C32.3107 29.0325 29.9973 29.7251 28 31V39C28 45.64 31.82 51 38.5 51C45.18 51 49 45.71 49 39.07V26C49 26 46.14 29 43.27 29Z" stroke="#00008F" stroke-width="2" stroke-linecap="round" stroke-linejoin="round"/>
<path d="M26 55L24.41 54.74C23.0444 54.5087 21.7525 53.9591 20.6389 53.1356C19.5253 52.3121 18.6212 51.2379 18 50C19.231 49.2966 20.2512 48.2765 20.9546 47.0455C21.658 45.8145 22.0189 44.4177 22 43V28.31C21.9974 26.4334 22.3644 24.5747 23.0801 22.84C23.7958 21.1052 24.8462 19.5284 26.1713 18.1996C27.4964 16.8708 29.0702 15.816 30.803 15.0954C32.5357 14.3749 34.3934 14.0027 36.27 14H37.46C39.9815 13.9593 42.469 14.5852 44.671 15.8144C46.8729 17.0435 48.7112 18.8324 50 21C50.6677 20.9575 51.3367 21.0577 51.9626 21.2939C52.5885 21.5301 53.1569 21.897 53.63 22.37C54.1031 22.8431 54.4699 23.4115 54.7061 24.0374C54.9424 24.6633 55.0425 25.3324 55 26V43C54.9994 43.6392 55.0699 44.2764 55.21 44.9" stroke="#00008F" stroke-width="2" stroke-linecap="round" stroke-linejoin="round"/>
</svg>

<svg width="96" height="96" viewBox="0 0 96 96" fill="none" xmlns="http://www.w3.org/2000/svg"><path d="M42 43c5 0 7-2 7-5M40 41h-2a2 2 0 100 4h2a2 2 0 100-4zM70 53a2 2 0 100-4 2 2 0 000 4zM62 53a2 2 0 100-4 2 2 0 000 4zM78 53a2 2 0 100-4 2 2 0 000 4z" stroke="#00008F" stroke-width="2" stroke-linecap="round" stroke-linejoin="round"/><path d="M54 73v5.32M70 35a16 16 0 00-14 23.82L54 67l8.18-2A16 16 0 1070 35v0zM32 49v5-5zm13 0v5-5zM23 73v5.32V73z" stroke="#00008F" stroke-width="2" stroke-linecap="round" stroke-linejoin="round"/><path d="M32 54l-8.9 1.53c-6.38.93-11.1 6.09-11.1 12.16v5.48a3.89 3.89 0 003.31 3.76l10.86 2a69.499 69.499 0 0024.66 0l10.86-2A3.89 3.89 0 0065 73.17v-7M45 54l8.9 1.53.85.3L45 54z" stroke="#00008F" stroke-width="2" stroke-linecap="round" stroke-linejoin="round"/><path d="M28.46 54.61l7.68 10.09a2.901 2.901 0 002.41 1.3 2.91 2.91 0 002.32-1.16L48.5 54.6M43.27 29h-8.59A12.74 12.74 0 0028 31v8c0 6.64 3.82 12 10.5 12S49 45.71 49 39.07V26s-2.86 3-5.73 3z" stroke="#00008F" stroke-width="2" stroke-linecap="round" stroke-linejoin="round"/><path d="M26 55l-1.59-.26A8.82 8.82 0 0118 50a7.94 7.94 0 004-7V28.31A14.29 14.29 0 0136.27 14h1.19A14.32 14.32 0 0150 21a4.71 4.71 0 015 5v17c0 .64.07 1.276.21 1.9" stroke="#00008F" stroke-width="2" stroke-linecap="round" stroke-linejoin="round"/></svg>
